www/images/pieces/california/wB.svg

<?xml version="1.0" encoding="UTF-8"?>
<svg xmlns="http://www.w3.org/2000/svg" xmlns:xlink="http://www.w3.org/1999/xlink" width="100" height="100" viewBox="-50 -60 381.316 511.653" version="1.1">
<defs>
<clipPath id="clip1">
  <path d="M 0 70 L 291.316406 70 L 291.316406 431.652344 L 0 431.652344 Z M 0 70 "/>
</clipPath>
</defs>
<g id="surface1" transform="translate(0 -20)">
<path style=" stroke:none;fill-rule:nonzero;fill:rgb(100%,100%,100%);fill-opacity:1;" d="M 180.359375 49.832031 C 180.359375 69.070312 164.765625 84.664062 145.527344 84.664062 C 126.289062 84.664062 110.695312 69.070312 110.695312 49.832031 C 110.695312 30.59375 126.289062 15 145.527344 15 C 164.765625 15 180.359375 30.59375 180.359375 49.832031 "/>
<path style="fill:none;stroke-width:30;stroke-linecap:butt;stroke-linejoin:round;stroke:rgb(0%,0%,0%);stroke-opacity:1;stroke-miterlimit:10;" d="M -0.000825 0.00066875 C -0.000825 -19.237612 -15.594575 -34.831362 -34.832856 -34.831362 C -54.071138 -34.831362 -69.664888 -19.237612 -69.664888 0.00066875 C -69.664888 19.23895 -54.071138 34.8327 -34.832856 34.8327 C -15.594575 34.8327 -0.000825 19.23895 -0.000825 0.00066875 Z M -0.000825 0.00066875 " transform="matrix(1,0,0,-1,180.3602,49.8327)"/>
<path style=" stroke:none;fill-rule:nonzero;fill:rgb(80.000305%,80.000305%,80.000305%);fill-opacity:1;" d="M 248.148438 169.859375 C 191.621094 185.222656 153.882812 281.285156 153.882812 281.285156 C 153.882812 281.285156 158.558594 194.765625 198.730469 121.183594 C 170.835938 98.917969 146.109375 85.140625 146.109375 85.140625 C 146.109375 85.140625 14.097656 157.269531 15.003906 239.835938 C 15.914062 322.402344 81.238281 386.820312 73.074219 404.0625 C 64.90625 421.300781 227.316406 420.394531 219.148438 404.0625 C 210.984375 387.730469 275.402344 321.496094 276.3125 239.835938 C 276.585938 215.125 264.761719 191.207031 248.148438 169.859375 "/>
<path style=" stroke:none;fill-rule:nonzero;fill:rgb(100%,100%,100%);fill-opacity:1;" d="M 150.316406 91.773438 C 99.816406 178.773438 87.816406 217.773438 87.816406 244.773438 C 87.816406 301.695312 138.816406 392.773438 114.316406 406.773438 L 78.316406 406.773438 L 33.316406 316.773438 L 15.316406 253.773438 L 24.316406 199.773438 L 60.316406 154.773438 Z M 150.316406 91.773438 "/>
<g clip-path="url(#clip1)" clip-rule="nonzero">
<path style=" stroke:none;fill-rule:nonzero;fill:rgb(0%,0%,0%);fill-opacity:1;" d="M 88.683594 397.546875 C 98.078125 399.609375 117.390625 401.652344 144.464844 401.652344 C 145.039062 401.652344 145.613281 401.652344 146.191406 401.652344 C 174.054688 401.5625 193.957031 399.398438 203.597656 397.277344 C 204.878906 386.949219 211.6875 374.679688 221.015625 357.875 C 237.800781 327.625 260.796875 286.195312 261.3125 239.667969 C 261.492188 223.597656 255.25 206.214844 242.746094 187.882812 C 206.597656 205.46875 176.847656 263.9375 167.839844 286.78125 C 165.140625 293.625 157.867188 297.511719 150.6875 295.9375 C 143.496094 294.367188 138.507812 287.824219 138.902344 280.476562 C 139.089844 276.988281 143.742188 198.164062 179.652344 125.386719 C 165.730469 114.941406 153.421875 107.042969 146.046875 102.527344 C 134.773438 109.316406 112.015625 123.863281 89.625 143.21875 C 62.203125 166.929688 29.597656 202.910156 30.003906 239.671875 C 30.519531 286.613281 53.785156 327.574219 70.773438 357.484375 C 80.496094 374.601562 87.527344 386.980469 88.683594 397.546875 M 144.574219 431.652344 C 128.140625 431.652344 112.257812 430.902344 99.648438 429.523438 C 77.027344 427.050781 69.535156 423.246094 65.195312 419.847656 C 58.785156 414.832031 56.3125 407.03125 58.640625 399.839844 C 57.511719 394.878906 50.4375 382.425781 44.6875 372.300781 C 27.132812 341.394531 0.605469 294.691406 0.00390625 240 C -0.421875 201.132812 23.269531 160.816406 70.421875 120.164062 C 104.132812 91.105469 137.515625 72.742188 138.917969 71.976562 C 143.4375 69.503906 148.914062 69.527344 153.414062 72.035156 C 154.464844 72.625 179.546875 86.679688 208.089844 109.460938 C 213.78125 114.003906 215.386719 121.980469 211.894531 128.375 C 198.992188 152.007812 189.890625 177.238281 183.5 200.273438 C 202.769531 176.179688 223.117188 161.117188 244.214844 155.382812 C 250.046875 153.796875 256.269531 155.871094 259.988281 160.648438 C 281.054688 187.71875 291.59375 214.417969 291.308594 240.003906 C 290.707031 294.117188 264.554688 341.246094 247.246094 372.433594 C 241.660156 382.5 234.792969 394.867188 233.59375 399.859375 C 235.847656 406.792969 233.570312 414.335938 227.503906 419.296875 C 223.3125 422.71875 215.996094 426.574219 193.464844 429.191406 C 180.375 430.707031 163.753906 431.582031 146.660156 431.648438 C 145.964844 431.652344 145.269531 431.652344 144.574219 431.652344 "/>
</g>
<path style="fill:none;stroke-width:30;stroke-linecap:round;stroke-linejoin:round;stroke:rgb(0%,0%,0%);stroke-opacity:1;stroke-miterlimit:10;" d="M 0.00020625 0.0006625 C 15.582238 -24.335275 181.500206 -28.839181 198.000206 0.0006625 " transform="matrix(1,0,0,-1,47.3162,344.2741)"/>
</g>
</svg>

<svg xmlns="http://www.w3.org/2000/svg" width="100" height="100" viewBox="-50 -60 381.316 511.653"><defs><clipPath id="a"><path d="M0 70h291.316v361.652H0zm0 0"/></clipPath></defs><path d="M180.36 29.832c0 19.238-15.594 34.832-34.833 34.832-19.238 0-34.832-15.594-34.832-34.832S126.29-5 145.527-5c19.239 0 34.832 15.594 34.832 34.832" fill="#fff"/><path d="M180.36 29.832c0 19.238-15.594 34.832-34.833 34.832-19.238 0-34.832-15.594-34.832-34.832S126.29-5 145.527-5c19.239 0 34.832 15.594 34.832 34.832zm0 0" fill="none" stroke-width="30" stroke-linejoin="round" stroke="#000" stroke-miterlimit="10"/><path d="M248.148 149.86c-56.527 15.363-94.265 111.425-94.265 111.425s4.676-86.52 44.847-160.101c-27.894-22.266-52.62-36.043-52.62-36.043S14.097 137.27 15.003 219.836c.91 82.566 66.234 146.984 58.07 164.226-8.168 17.239 154.242 16.333 146.074 0-8.164-16.332 56.254-82.566 57.165-164.226.273-24.711-11.551-48.629-28.165-69.977" fill="#ccc"/><path d="M150.316 71.773c-50.5 87-62.5 126-62.5 153 0 56.922 51 148 26.5 162h-36l-45-90-18-63 9-54 36-45zm0 0" fill="#fff"/><g clip-path="url(#a)" transform="translate(0 -20)"><path d="M88.684 397.547c9.394 2.062 28.707 4.105 55.78 4.105h1.727c27.864-.09 47.766-2.254 57.407-4.375 1.28-10.328 8.09-22.597 17.418-39.402 16.785-30.25 39.78-71.68 40.297-118.207.18-16.07-6.063-33.453-18.567-51.785-36.148 17.586-65.898 76.054-74.906 98.898-2.7 6.844-9.973 10.73-17.153 9.156a15 15 0 0 1-11.785-15.46c.188-3.489 4.84-82.313 40.75-155.09-13.922-10.446-26.23-18.344-33.605-22.86-11.274 6.79-34.031 21.336-56.422 40.692-27.422 23.71-60.027 59.691-59.621 96.453.516 46.941 23.781 87.902 40.77 117.812 9.722 17.118 16.753 29.496 17.91 40.063m55.89 34.105c-16.433 0-32.316-.75-44.926-2.129-22.62-2.472-30.113-6.277-34.453-9.675-6.41-5.016-8.882-12.817-6.554-20.008-1.13-4.961-8.203-17.414-13.953-27.54C27.133 341.396.605 294.692.004 240c-.426-38.867 23.266-79.184 70.418-119.836 33.71-29.059 67.094-47.422 68.496-48.187a14.998 14.998 0 0 1 14.496.058c1.05.59 26.133 14.645 54.676 37.426a15 15 0 0 1 3.805 18.914c-12.903 23.633-22.004 48.863-28.395 71.898 19.27-24.093 39.617-39.156 60.715-44.89a15.005 15.005 0 0 1 15.773 5.265c21.067 27.07 31.606 53.77 31.32 79.356-.601 54.113-26.753 101.242-44.062 132.43-5.586 10.066-12.453 22.433-13.652 27.425 2.254 6.934-.024 14.477-6.09 19.438-4.191 3.422-11.508 7.277-34.04 9.894-13.089 1.516-29.71 2.391-46.804 2.457-.695.004-1.39.004-2.086.004"/></g><path d="M47.316 324.273c15.582 24.336 181.5 28.84 198 0" fill="none" stroke-width="30" stroke-linecap="round" stroke-linejoin="round" stroke="#000" stroke-miterlimit="10"/></svg>
